X: 678
T: After The Storm
R: reel
M: 4/4
K: Dmajor
|:"D"dAFA ~D2AD|dAFD "G"GABG|"D"dAFA ~D2(3Bcd|"A"edBA FABc|
"D"dAFA ~D2AD|dAFD "G"GABG|"A"ABcd ecde|"D"fedc d2AB:|
|:"D"dAFA eAFA|fAeA dAFA|"A"cAEA eAEA|"G"gAfA "A"eAGA|
"D"dAFA eAFA|fAeA dAFA|"G"dBAG "D"FGAd|fedc d2AB:|

